X:1
T:Belville, LMD
T:Belville, LMD
T:Carmina Sacra, by Lowell Mason, 1844
T:Public Domain Courtesy of the Cyber Hymnal™
C:Carmina Sacra, by Lowell Mason, 1844
Z:Public Domain
Z:Courtesy of the Cyber Hymnal™
%%score 1 2 3 4
L:1/8
Q:1/4=105
M:4/4
K:D
V:1 treble 
V:2 treble 
V:3 treble-8 
V:4 bass 
V:1
 A2 | A2 (Ad) d2 B2 | A2 G2 F2 E2 | F2 (A^G) A2 (FB) | c2 d2 c2 z B :| B2 B2 B d2 d | %6
 (dA) A2 A3 z | d2 d2 d3 d | A2 A2 A3 A | A2 A2 A d2 d | (dA) A2 A3 A | A2 A2 G2 (AB) | %12
 A2 (AG) F3 x |] x7 |] %14
V:2
 F2 | F2 (AG) F2 E2 | D2 C2 D2 E2 | D2 E2 E2 F2 | E2 E2 E2 x2 :| z F x6 | (FE) (DE) F3 G | %7
 (FE) DE F3 F | F2 (FA) A G2 F | (FE) (ED) D2 CF | (FE) (DE) F3 G | (FE) (DE) F3 F | %12
 F2 D2 D2 (DE) |] D2 C2 D3 |] %14
V:3
 A2 | d2 (cB) A2 G2 | F2 E2 D2 A2 | d2 (cB) (eA) (Bd) | c2 B2 A2 x2 :| z A x6 | (AG) (FG) A3 B | %7
 (AG) (FG) A3 A | A2 (dc) c B2 A | (AG) (GF) F2 EA | (AG) (FG) A3 B | (AG) (FG) A3 A | %12
 A2 (dc) (cB) (AG) |] F2 E2 D3 |] %14
V:4
 D,2 | D,2 D,2 D,2 G,,2 | A,,2 A,,2 D,2 C,2 | B,,2 (E,D,) C,2 D,2 | E,2 E,2 A,,2 x2 :| z D, x6 | %6
 D,2 D,2 D,3 D, | D,2 D,2 D,3 D, | D,2 D,2 D,3 D, | C,2 D,2 A,3 D, | D,2 D,2 D,3 D, | %11
 D,2 D,2 D,3 D, | D,2 F,2 G,2 (F,G,) |] A,2 A,,2 D,3 |] %14

